src/assets/icons/autonomous-pattern.svg

<?xml version="1.0" encoding="UTF-8"?>
<!-- Generated by Pixelmator Pro 3.2.3 -->
<svg width="2200" height="2200" viewBox="0 0 2200 2200" xmlns="http://www.w3.org/2000/svg" xmlns:xlink="http://www.w3.org/1999/xlink">
    <g id="autonomous" opacity="0.049049">
        <path id="Shape" fill="#000000" fill-rule="evenodd" stroke="none" d="M 1098.556641 1599.898438 C 1014.029236 1599.750244 928.398132 1578.136841 849.941406 1532.839844 C 610.835327 1394.79187 528.91095 1089.047485 666.958984 849.941406 C 805.007019 610.835205 1110.751343 528.911011 1349.857422 666.958984 C 1588.963501 805.006958 1670.887817 1110.751343 1532.839844 1349.857422 C 1440.088745 1510.506836 1271.636597 1600.201904 1098.556641 1599.898438 Z M 991.863281 1457.873047 C 1001.406494 1457.857422 1011.071716 1455.418457 1019.925781 1450.306641 L 1443.521484 1205.744141 C 1470.505249 1190.165039 1479.758789 1155.634155 1464.179688 1128.650391 L 1388.929688 998.3125 L 1299.6875 843.742188 C 1288.987793 825.209961 1262.472534 824.905029 1251.236328 843.068359 L 1141.335938 1020.970703 L 1104.181641 956.617188 C 1093.481934 938.084961 1066.966675 937.780029 1055.730469 955.943359 L 945.832031 1133.845703 L 856.824219 979.681641 C 846.418579 961.658447 823.450806 955.504517 805.427734 965.910156 L 740.259766 1003.535156 C 722.236633 1013.940796 716.082581 1036.908447 726.488281 1054.931641 L 867.582031 1299.3125 L 895.800781 1348.189453 L 942.832031 1429.650391 C 953.299255 1447.780151 972.322449 1457.905029 991.863281 1457.873047 Z"/>
        <path id="Shape-copy" fill="#000000" fill-rule="evenodd" stroke="none" d="M 2198.556641 1599.898438 C 2114.029297 1599.750244 2028.398071 1578.136841 1949.941406 1532.839844 C 1710.835327 1394.79187 1628.911011 1089.047485 1766.958984 849.941406 C 1905.006958 610.835205 2210.751465 528.911011 2449.857422 666.958984 C 2688.963623 805.006958 2770.887695 1110.751343 2632.839844 1349.857422 C 2540.088867 1510.506836 2371.636719 1600.201904 2198.556641 1599.898438 Z M 2091.863281 1457.873047 C 2101.406494 1457.857422 2111.071777 1455.418457 2119.925781 1450.306641 L 2543.521484 1205.744141 C 2570.505127 1190.165039 2579.758789 1155.634155 2564.179688 1128.650391 L 2488.929688 998.3125 L 2399.6875 843.742188 C 2388.987793 825.209961 2362.472656 824.905029 2351.236328 843.068359 L 2241.335938 1020.970703 L 2204.181641 956.617188 C 2193.481934 938.084961 2166.966797 937.780029 2155.730469 955.943359 L 2045.832031 1133.845703 L 1956.824219 979.681641 C 1946.418457 961.658447 1923.450806 955.504517 1905.427734 965.910156 L 1840.259766 1003.535156 C 1822.236694 1013.940796 1816.08252 1036.908447 1826.488281 1054.931641 L 1967.582031 1299.3125 L 1995.800781 1348.189453 L 2042.832031 1429.650391 C 2053.299316 1447.780151 2072.32251 1457.905029 2091.863281 1457.873047 Z"/>
        <path id="Shape-copy-2" fill="#000000" fill-rule="evenodd" stroke="none" d="M -1.443359 1599.898438 C -85.970779 1599.750244 -171.601883 1578.136841 -250.058594 1532.839844 C -489.164673 1394.79187 -571.08905 1089.047485 -433.041016 849.941406 C -294.993011 610.835205 10.751364 528.911011 249.857422 666.958984 C 488.963501 805.006958 570.887817 1110.751343 432.839844 1349.857422 C 340.088776 1510.506836 171.636597 1600.201904 -1.443359 1599.898438 Z M -108.136719 1457.873047 C -98.593513 1457.857422 -88.926308 1455.418457 -80.072266 1450.306641 L 343.521484 1205.744141 C 370.505219 1190.165039 379.758759 1155.634155 364.179688 1128.650391 L 288.929688 998.3125 L 199.6875 843.742188 C 188.987808 825.209961 162.472519 824.905029 151.236328 843.068359 L 41.335938 1020.970703 L 4.181641 956.617188 C -6.518056 938.084961 -33.033337 937.780029 -44.269531 955.943359 L -154.167969 1133.845703 L -243.175781 979.681641 C -253.581421 961.658447 -276.549225 955.504517 -294.572266 965.910156 L -359.740234 1003.535156 C -377.763336 1013.940796 -383.917419 1036.908447 -373.511719 1054.931641 L -232.417969 1299.3125 L -204.199219 1348.189453 L -157.167969 1429.650391 C -146.700775 1447.780151 -127.677574 1457.905029 -108.136719 1457.873047 Z"/>
        <path id="Shape-copy-3" fill="#000000" fill-rule="evenodd" stroke="none" d="M 547.556641 499.898438 C 463.029205 499.750244 377.398102 478.136841 298.941406 432.839844 C 59.835323 294.79187 -22.089033 -10.952393 115.958984 -250.058594 C 254.007004 -489.164795 559.751343 -571.088867 798.857422 -433.041016 C 1037.963501 -294.993164 1119.887817 10.751221 981.839844 249.857422 C 889.088806 410.506958 720.636597 500.202026 547.556641 499.898438 Z M 440.863281 357.873047 C 450.406494 357.857422 460.071747 355.418579 468.925781 350.306641 L 892.521484 105.744141 C 919.505249 90.165039 928.758789 55.634033 913.179688 28.650391 L 837.929688 -101.6875 L 748.6875 -256.257813 C 737.987793 -274.790039 711.472534 -275.094971 700.236328 -256.931641 L 590.335938 -79.029297 L 553.181641 -143.382813 C 542.481934 -161.915039 515.966675 -162.219971 504.730469 -144.056641 L 394.832031 33.845703 L 305.824219 -120.318359 C 295.418579 -138.341553 272.450775 -144.495605 254.427734 -134.089844 L 189.259766 -96.464844 C 171.236649 -86.059326 165.082596 -63.091553 175.488281 -45.068359 L 316.582031 199.3125 L 344.800781 248.189453 L 391.832031 329.650391 C 402.299225 347.780029 421.322418 357.905029 440.863281 357.873047 Z"/>
        <path id="Shape-copy-6" fill="#000000" fill-rule="evenodd" stroke="none" d="M 1648.556641 499.898438 C 1564.029175 499.750244 1478.398071 478.136841 1399.941406 432.839844 C 1160.835327 294.79187 1078.911011 -10.952393 1216.958984 -250.058594 C 1355.006958 -489.164795 1660.751343 -571.088867 1899.857422 -433.041016 C 2138.963623 -294.993164 2220.887695 10.751221 2082.839844 249.857422 C 1990.088867 410.506958 1821.636597 500.202026 1648.556641 499.898438 Z M 1541.863281 357.873047 C 1551.406494 357.857422 1561.071777 355.418579 1569.925781 350.306641 L 1993.521484 105.744141 C 2020.505249 90.165039 2029.758789 55.634033 2014.179688 28.650391 L 1938.929688 -101.6875 L 1849.6875 -256.257813 C 1838.987793 -274.790039 1812.472534 -275.094971 1801.236328 -256.931641 L 1691.335938 -79.029297 L 1654.181641 -143.382813 C 1643.481934 -161.915039 1616.966675 -162.219971 1605.730469 -144.056641 L 1495.832031 33.845703 L 1406.824219 -120.318359 C 1396.418457 -138.341553 1373.450806 -144.495605 1355.427734 -134.089844 L 1290.259766 -96.464844 C 1272.236694 -86.059326 1266.08252 -63.091553 1276.488281 -45.068359 L 1417.582031 199.3125 L 1445.800781 248.189453 L 1492.832031 329.650391 C 1503.299194 347.780029 1522.322388 357.905029 1541.863281 357.873047 Z"/>
        <path id="Shape-copy-4" fill="#000000" fill-rule="evenodd" stroke="none" d="M 547.556641 2699.898438 C 463.029205 2699.750244 377.398102 2678.136719 298.941406 2632.839844 C 59.835323 2494.791992 -22.089033 2189.047607 115.958984 1949.941406 C 254.007004 1710.835205 559.751343 1628.911133 798.857422 1766.958984 C 1037.963501 1905.006958 1119.887817 2210.751221 981.839844 2449.857422 C 889.088806 2610.506836 720.636597 2700.201904 547.556641 2699.898438 Z M 440.863281 2557.873047 C 450.406494 2557.857422 460.071747 2555.418457 468.925781 2550.306641 L 892.521484 2305.744141 C 919.505249 2290.165039 928.758789 2255.634033 913.179688 2228.650391 L 837.929688 2098.3125 L 748.6875 1943.742188 C 737.987793 1925.209961 711.472534 1924.905029 700.236328 1943.068359 L 590.335938 2120.970703 L 553.181641 2056.617188 C 542.481934 2038.084961 515.966675 2037.780029 504.730469 2055.943359 L 394.832031 2233.845703 L 305.824219 2079.681641 C 295.418579 2061.658447 272.450775 2055.504639 254.427734 2065.910156 L 189.259766 2103.535156 C 171.236649 2113.940674 165.082596 2136.908447 175.488281 2154.931641 L 316.582031 2399.3125 L 344.800781 2448.189453 L 391.832031 2529.650391 C 402.299225 2547.780029 421.322418 2557.905029 440.863281 2557.873047 Z"/>
        <path id="Shape-copy-5" fill="#000000" fill-rule="evenodd" stroke="none" d="M 1648.658203 2700 C 1564.130737 2699.851807 1478.497681 2678.236572 1400.041016 2632.939453 C 1160.934937 2494.891602 1079.01062 2189.147217 1217.058594 1950.041016 C 1355.106689 1710.934814 1660.852905 1629.01062 1899.958984 1767.058594 C 2139.064941 1905.106567 2220.989258 2210.853027 2082.941406 2449.958984 C 1990.190308 2610.608398 1821.738159 2700.303467 1648.658203 2700 Z M 1541.962891 2557.972656 C 1551.506104 2557.957031 1561.17334 2555.52002 1570.027344 2550.408203 L 1993.621094 2305.845703 C 2020.604858 2290.266602 2029.858398 2255.733643 2014.279297 2228.75 L 1939.029297 2098.412109 L 1849.787109 1943.841797 C 1839.087402 1925.30957 1812.572144 1925.004639 1801.335938 1943.167969 L 1691.4375 2121.070313 L 1654.28125 2056.716797 C 1643.581543 2038.18457 1617.068237 2037.879639 1605.832031 2056.042969 L 1495.931641 2233.945313 L 1406.925781 2079.78125 C 1396.520142 2061.758057 1373.550415 2055.604248 1355.527344 2066.009766 L 1290.359375 2103.634766 C 1272.336304 2114.040283 1266.182129 2137.008057 1276.587891 2155.03125 L 1417.681641 2399.412109 L 1445.900391 2448.289063 L 1492.931641 2529.75 C 1503.398804 2547.879639 1522.421997 2558.004639 1541.962891 2557.972656 Z"/>
    </g>
</svg>

<svg xmlns="http://www.w3.org/2000/svg" xmlns:xlink="http://www.w3.org/1999/xlink" width="2200" height="2200" xmlns:v="https://vecta.io/nano"><g opacity=".049" fill-rule="evenodd"><use xlink:href="#B"/><use xlink:href="#B" x="1100"/><path d="M-1.443 1599.898c-84.527-.148-170.159-21.762-248.615-67.059-239.106-138.048-321.03-443.792-182.982-682.898s443.792-321.03 682.898-182.982 321.03 443.792 182.982 682.898c-92.751 160.649-261.203 250.344-434.283 250.041zm-106.693-142.025a56.16 56.16 0 0 0 28.064-7.566l423.594-244.562c26.984-15.579 36.237-50.11 20.658-77.094l-75.25-130.338-89.242-154.57c-10.7-18.532-37.215-18.837-48.451-.674l-109.9 177.902-37.154-64.354c-10.7-18.532-37.215-18.837-48.451-.674l-109.898 177.902-89.008-154.164c-10.406-18.023-33.373-24.177-51.396-13.771l-65.168 37.625c-18.023 10.406-24.177 33.373-13.771 51.396l141.094 244.381 28.219 48.877 47.031 81.461c10.467 18.13 29.49 28.255 49.031 28.223zm655.693-957.975c-84.527-.148-170.159-21.762-248.615-67.059C59.835 294.792-22.089-10.952 115.959-250.059s443.792-321.03 682.898-182.982 321.03 443.792 182.982 682.898c-92.751 160.65-261.203 250.345-434.283 250.041zM440.863 357.873a56.16 56.16 0 0 0 28.063-7.566l423.596-244.562c26.984-15.579 36.237-50.11 20.658-77.094l-75.25-130.338-89.242-154.57c-10.7-18.532-37.215-18.837-48.451-.674l-109.9 177.902-37.154-64.354c-10.7-18.532-37.215-18.837-48.451-.674l-109.9 177.903-89.008-154.164c-10.406-18.023-33.373-24.177-51.396-13.771L189.26-96.465c-18.023 10.406-24.177 33.373-13.771 51.396l141.094 244.381 28.219 48.877 47.031 81.461c10.467 18.13 29.49 28.255 49.031 28.223zm1207.694 142.025c-84.527-.148-170.159-21.762-248.615-67.059-239.106-138.048-321.03-443.792-182.982-682.898s443.792-321.03 682.898-182.982 321.03 443.792 182.982 682.898c-92.751 160.65-261.203 250.345-434.283 250.041zm-106.693-142.025a56.16 56.16 0 0 0 28.063-7.566l423.596-244.562c26.984-15.579 36.237-50.11 20.658-77.094l-75.25-130.338-89.242-154.57c-10.7-18.532-37.215-18.837-48.451-.674l-109.9 177.902-37.154-64.354c-10.7-18.532-37.215-18.837-48.451-.674L1495.832 33.846l-89.008-154.164c-10.406-18.023-33.373-24.177-51.396-13.771l-65.168 37.625c-18.023 10.406-24.177 33.373-13.771 51.396l141.094 244.381 28.219 48.877 47.031 81.461c10.467 18.13 29.49 28.255 49.031 28.223z"/><use xlink:href="#B" x="-551" y="1100"/><path d="M1648.658 2700c-84.527-.148-170.161-21.763-248.617-67.061-239.106-138.048-321.03-443.792-182.982-682.898s443.794-321.03 682.9-182.982 321.03 443.794 182.982 682.9c-92.751 160.649-261.203 250.344-434.283 250.041zm-106.695-142.027c9.543-.016 19.21-2.453 28.064-7.564l423.594-244.562c26.984-15.579 36.237-50.112 20.658-77.096l-75.25-130.338-89.242-154.57c-10.7-18.532-37.215-18.837-48.451-.674l-109.898 177.902-37.156-64.354c-10.7-18.532-37.213-18.837-48.449-.674l-109.9 177.902-89.006-154.164c-10.406-18.023-33.375-24.177-51.398-13.771l-65.168 37.625c-18.023 10.406-24.177 33.373-13.771 51.396l141.094 244.381 28.219 48.877 47.031 81.461c10.467 18.13 29.49 28.255 49.031 28.223z"/></g><defs ><path id="B" d="M1098.557 1599.898c-84.527-.148-170.159-21.762-248.615-67.059-239.106-138.048-321.03-443.792-182.982-682.898s443.792-321.03 682.898-182.982 321.03 443.792 182.982 682.898c-92.751 160.649-261.203 250.344-434.283 250.041zm-106.693-142.025c9.543-.016 19.208-2.455 28.063-7.566l423.596-244.562c26.984-15.579 36.237-50.11 20.658-77.094l-75.25-130.338-89.242-154.57c-10.7-18.532-37.215-18.837-48.451-.674l-109.9 177.902-37.154-64.354c-10.7-18.532-37.215-18.837-48.451-.674l-109.898 177.902-89.008-154.164c-10.406-18.023-33.373-24.177-51.396-13.771l-65.168 37.625c-18.023 10.406-24.177 33.373-13.771 51.396l141.094 244.381 28.219 48.877 47.031 81.461c10.467 18.13 29.49 28.255 49.031 28.223z"/></defs></svg>
